X: 16429
T: Hafotty Dafydd Owain
R: jig
M: 6/8
K: Adorian
E|:A3 cBA|B2e edB|GBB GBB|cBA BAG|
A3 cBA|B2e efg|aee dcB|1 AGB A2E:|2 AGB A2B||
cGc dzd|ede edc|BAB cGc|ddd dcB|
ccc dcd|ede efg|aee dcB|1 AGB A2B:|2 AGB A2||

